front/public/static/landing/logos/gray/aramis.svg

<svg fill="none" height="300" viewBox="0 0 600 300" width="600" xmlns="http://www.w3.org/2000/svg"><g fill="#364153"><path d="m309.641 113.998-9.829-24.551h-.239l-9.829 24.551-4.795 12.276-3.596 8.819c-.479 1.192-1.558 1.907-2.876 1.907h-12.946l26.61-62.0931c.479-1.1918 1.558-1.9069 2.877-1.9069h11.866l27.449 64h-13.425c-1.199 0-2.397-.715-2.877-1.907l-3.596-8.819"/><path d="m89.5205 197.942h-22.6541l-3.1165 7.27c-.2396.596-.8391 1.073-1.5583 1.073h-7.1916l19.058-42.905c.2399-.596.8392-1.073 1.5584-1.073h6.5923l19.5383 43.978h-7.432c-.7192 0-1.3184-.358-1.5583-1.073zm-11.3871-26.697-8.2704 19.784h16.7807l-8.2704-19.784z"/><path d="m105.102 206.285v-43.978h19.537c10.668 0 16.302 4.767 16.302 13.944 0 7.032-3.356 11.561-9.829 13.229l11.147 16.805h-8.51c-.599 0-1.198-.358-1.438-.835l-9.35-15.255h-9.828v14.421c0 .954-.72 1.669-1.678 1.669zm19.298-23.241c5.753 0 8.51-2.264 8.51-6.793 0-4.648-2.757-6.912-8.51-6.912h-11.267v13.705z"/><path d="m179.059 197.942h-22.654l-3.116 7.27c-.24.596-.839 1.073-1.558 1.073h-7.192l19.058-42.905c.24-.596.839-1.073 1.558-1.073h6.593l19.537 43.978h-7.431c-.719 0-1.319-.358-1.558-1.073zm-11.387-26.697-8.27 19.784h16.781l-8.391-19.784z"/><path d="m241.146 206.285c-.96 0-1.679-.715-1.679-1.669v-33.728h-.119l-14.864 35.397h-6.112c-.72 0-1.319-.358-1.558-1.073l-14.144-33.728h-.12v33.013c0 .953-.719 1.668-1.678 1.668h-5.993v-42.19c0-.953.719-1.668 1.678-1.668h10.308l13.904 33.609h.119l13.786-32.536c.239-.596.838-1.073 1.558-1.073h11.146v43.978z"/><path d="m257.325 162.307h6.235v42.309c0 .954-.72 1.669-1.679 1.669h-6.233v-42.31c0-.953.72-1.668 1.677-1.668z"/><path d="m302.279 164.571c.48.238.72.834.72 1.43v7.508h-.362c-2.876-3.098-7.909-4.886-13.783-4.886-5.634 0-9.23 2.384-9.23 6.078 0 3.099 2.278 4.648 9.829 5.483 11.748 1.191 16.063 5.243 16.063 13.348 0 8.462-6.353 13.348-17.26 13.348-6.834 0-12.228-1.311-15.824-3.694-.477-.358-.717-.835-.717-1.431v-7.627h.359c3.954 3.694 9.47 5.601 15.942 5.601 6.111 0 9.589-2.145 9.589-6.078 0-3.337-2.397-5.006-10.309-5.84-11.508-1.311-15.702-5.005-15.702-12.633 0-8.462 6.593-13.587 17.26-13.587 5.394 0 10.427 1.192 13.425 2.98z"/><path d="m339.198 161.711c-14.382 0-23.733 8.82-23.733 22.645 0 13.706 9.351 22.644 23.733 22.644 6.833 0 11.988-1.43 16.063-4.41v-17.757h-17.98v3.337h14.384v12.633l-.361.119c-3.356 1.788-7.192 2.622-11.985 2.622-11.988 0-20.018-7.747-20.018-19.307 0-11.561 8.03-19.308 20.018-19.308 6.712 0 11.627 1.669 15.942 5.363v-4.171c-4.197-2.979-9.23-4.41-16.063-4.41z"/><path d="m397.09 206.165h4.553l-12.344-17.996.957-.119c7.074-1.192 10.67-5.483 10.67-12.634 0-8.7-5.154-12.99-15.223-12.99h-19.058v43.858h3.836v-17.877h15.101zm-11.627-21.095h-15.103v-19.307h15.103c7.67 0 11.506 3.218 11.506 9.653 0 6.317-3.955 9.654-11.506 9.654z"/><path d="m431.253 161.711c-13.424 0-22.894 9.297-22.894 22.645s9.348 22.644 22.894 22.644c13.543 0 22.892-9.296 22.892-22.644.121-13.348-9.349-22.645-22.892-22.645zm0 41.833c-11.147 0-18.94-7.866-18.94-19.307 0-11.323 7.793-19.308 18.94-19.308s19.059 7.866 19.059 19.308c0 11.441-7.793 19.307-19.059 19.307z"/><path d="m462.41 162.426v25.505c0 12.394 6.475 18.949 18.579 18.949 12.227 0 18.7-6.555 18.7-18.949v-25.505h-3.715v25.147c0 10.25-5.276 15.97-14.985 15.97-9.589 0-14.862-5.601-14.862-15.97v-25.147z"/><path d="m510.961 206.166h3.836v-17.282h14.982c10.069 0 15.223-4.41 15.223-13.229s-5.154-13.348-15.223-13.348h-18.818zm18.579-20.619h-14.743v-19.784h14.743c7.671 0 11.507 3.337 11.507 10.011 0 6.436-3.836 9.773-11.507 9.773z"/></g></svg>

<svg width="600" height="300" viewBox="0 0 600 300" fill="none" xmlns="http://www.w3.org/2000/svg">
<path d="M309.641 113.998L299.812 89.447H299.573L289.744 113.998L284.949 126.274L281.353 135.093C280.874 136.285 279.795 137 278.477 137H265.531L292.141 74.9069C292.62 73.7151 293.699 73 295.018 73H306.884L334.333 137H320.908C319.709 137 318.511 136.285 318.031 135.093L314.435 126.274" fill="#364153"/>
<path d="M89.5205 197.942H66.8664L63.7499 205.212C63.5103 205.808 62.9108 206.285 62.1916 206.285H55L74.058 163.38C74.2979 162.784 74.8972 162.307 75.6164 162.307H82.2087L101.747 206.285H94.315C93.5958 206.285 92.9966 205.927 92.7567 205.212L89.5205 197.942ZM78.1334 171.245L69.863 191.029H86.6437L78.3733 171.245H78.1334Z" fill="#364153"/>
<path d="M105.102 206.285V162.307H124.639C135.307 162.307 140.941 167.074 140.941 176.251C140.941 183.283 137.585 187.812 131.112 189.48L142.259 206.285H133.749C133.15 206.285 132.551 205.927 132.311 205.45L122.961 190.195H113.133V204.616C113.133 205.57 112.413 206.285 111.455 206.285H105.102ZM124.4 183.044C130.153 183.044 132.91 180.78 132.91 176.251C132.91 171.603 130.153 169.339 124.4 169.339H113.133V183.044H124.4Z" fill="#364153"/>
<path d="M179.059 197.942H156.405L153.289 205.212C153.049 205.808 152.45 206.285 151.731 206.285H144.539L163.597 163.38C163.837 162.784 164.436 162.307 165.155 162.307H171.748L191.285 206.285H183.854C183.135 206.285 182.535 205.927 182.296 205.212L179.059 197.942ZM167.672 171.245L159.402 191.029H176.183L167.792 171.245H167.672Z" fill="#364153"/>
<path d="M241.146 206.285C240.186 206.285 239.467 205.57 239.467 204.616V170.888H239.348L224.484 206.285H218.372C217.652 206.285 217.053 205.927 216.814 205.212L202.67 171.484H202.55V204.497C202.55 205.45 201.831 206.165 200.872 206.165H194.879V163.975C194.879 163.022 195.598 162.307 196.557 162.307H206.865L220.769 195.916H220.888L234.674 163.38C234.913 162.784 235.512 162.307 236.232 162.307H247.378V206.285H241.146Z" fill="#364153"/>
<path d="M257.325 162.307H263.56V204.616C263.56 205.57 262.84 206.285 261.881 206.285H255.648V163.975C255.648 163.022 256.368 162.307 257.325 162.307Z" fill="#364153"/>
<path d="M302.279 164.571C302.759 164.809 302.999 165.405 302.999 166.001V173.509H302.637C299.761 170.411 294.728 168.623 288.854 168.623C283.22 168.623 279.624 171.007 279.624 174.701C279.624 177.8 281.902 179.349 289.453 180.184C301.201 181.375 305.516 185.427 305.516 193.532C305.516 201.994 299.163 206.88 288.256 206.88C281.422 206.88 276.028 205.569 272.432 203.186C271.955 202.828 271.715 202.351 271.715 201.755V194.128H272.074C276.028 197.822 281.544 199.729 288.016 199.729C294.127 199.729 297.605 197.584 297.605 193.651C297.605 190.314 295.208 188.645 287.296 187.811C275.788 186.5 271.594 182.806 271.594 175.178C271.594 166.716 278.187 161.591 288.854 161.591C294.248 161.591 299.281 162.783 302.279 164.571Z" fill="#364153"/>
<path d="M339.198 161.711C324.816 161.711 315.465 170.531 315.465 184.356C315.465 198.062 324.816 207 339.198 207C346.031 207 351.186 205.57 355.261 202.59V184.833H337.281V188.17H351.665V200.803L351.304 200.922C347.948 202.71 344.112 203.544 339.319 203.544C327.331 203.544 319.301 195.797 319.301 184.237C319.301 172.676 327.331 164.929 339.319 164.929C346.031 164.929 350.946 166.598 355.261 170.292V166.121C351.064 163.142 346.031 161.711 339.198 161.711Z" fill="#364153"/>
<path d="M397.09 206.165H401.643L389.299 188.169L390.256 188.05C397.33 186.858 400.926 182.567 400.926 175.416C400.926 166.716 395.772 162.426 385.703 162.426H366.645V206.284H370.481V188.407H385.582L397.09 206.165ZM385.463 185.07H370.36V165.763H385.463C393.133 165.763 396.969 168.981 396.969 175.416C396.969 181.733 393.014 185.07 385.463 185.07Z" fill="#364153"/>
<path d="M431.253 161.711C417.829 161.711 408.359 171.008 408.359 184.356C408.359 197.704 417.707 207 431.253 207C444.796 207 454.145 197.704 454.145 184.356C454.266 171.008 444.796 161.711 431.253 161.711ZM431.253 203.544C420.106 203.544 412.313 195.678 412.313 184.237C412.313 172.914 420.106 164.929 431.253 164.929C442.4 164.929 450.312 172.795 450.312 184.237C450.312 195.678 442.519 203.544 431.253 203.544Z" fill="#364153"/>
<path d="M462.41 162.426V187.931C462.41 200.325 468.885 206.88 480.989 206.88C493.216 206.88 499.689 200.325 499.689 187.931V162.426H495.974V187.573C495.974 197.823 490.698 203.543 480.989 203.543C471.4 203.543 466.127 197.942 466.127 187.573V162.426H462.41Z" fill="#364153"/>
<path d="M510.961 206.166H514.797V188.884H529.779C539.848 188.884 545.002 184.474 545.002 175.655C545.002 166.836 539.848 162.307 529.779 162.307H510.961V206.166ZM529.54 185.547H514.797V165.763H529.54C537.211 165.763 541.047 169.1 541.047 175.774C541.047 182.21 537.211 185.547 529.54 185.547Z" fill="#364153"/>
</svg>
